X:1
T:Chi d'Amor nel petto
T:Chi d'Amor nel petto
T:Mario Savioni
T:Source : Ariette di Musica a l e 2 voci---Bracciano---Andrea Fei---1646. Editor : André Vierendeels (02/04/16).
T:Notes : Original clefs : C1 F4 Editorial accidentals above the staff Dotted brackets indicate black notes Figures in BC are notated in original print Note values have been halved in 6/4 measures Music collected by Florido de Silvestris    
T:©
T:©
T:©
T:©
C:Mario Savioni
Z:©
%%score 1 2
L:1/8
Q:1/4=90
M:4/4
K:F
V:1 treble nm="Soprano" snm="S"
V:2 bass nm="BC" snm="BC"
V:1
 z2 A>A dfed | cAcd B2 A2 | d e/f/ g=B ^c2 c2 | z2 ee e/d/e/f/ ed | d/c/d/e/ d^c dcAc | BA z4 eg | %6
w: Chi d'A- mor nel pet- to|ce- la, fiam- m'ar- de- te,|e stra- * * le'a- cu- to|spes- so pian- * * * * g'e|si _ _ _ _ que- re- la di pre-|gar, _ di pre-|
w: Bel- la mi- o trop- po|al- to so- no que- ste|vo- ci _ che for- ma- te,|e par- lan _ _ _ _ do'in|al- * * * * to tuo- * * *|no, _ e par-|
w: Pres- so'à gar- rul- la fa-|nel- la, mai di'A- mor fiam-|ma non _ _ _ cre- sce,|che heb- be _ _ _ _ gia|Ve- * * * * ne- re bel- * *|la, _ che heb-|
 fe z e ^cA d2 | d3 ^c d2 AA | B/A/B/c/ BA A/G/A/B/ AG | AGEG FE z F | GE F G/F/ E4 | D8 :: %12
w: gar, _ vo- i _ dol|mu- to _ spes- so|pian- * * * * g'e si _ _ _ _ que-|re- la di pre- gar, _ un|i- * dol mu- * *|to.|
w: lan- * do'in _ al- to|tuo- no, _ e par-|lan- * * * * do'in al- * * * * to|tuo tuo- no, sem- pre _ ful-|min _ av- ven- * ta-|te.|
w: be _ gia Ve- * ne-|re bel- la, che heb-|be _ _ _ _ gia Ve- * * * * ne-|re bel- la, il- na- * tal|tra _ mu- to _ pe-|sce.|
[M:6/4] f2 z2 f2 c2 z2 d2 | c2 TB4 A2 A2 B2 | c2 A2 c2 B2 A4 | G2 G2 A2 B2 B2 c2 | d4 e2 f2 e2 d2 | %17
w: Ma cio dir non|pos- s'io gia per- che'a-|do- ro'u- na bel- *|ta, cui io so del mio|cor pa- le- se il|
w: Mai dol- cez- za'io|non go- dro, mai dol-|cez- za io non go-|dro, se dir for- te v'u-|di- re, for- te v'u-|
w: Po co'af- fer- to'e|gran ri- got, po- co'af-|fer- to e gran ri-|gor, le lo- qua- ci'han den-|tro'al cor, han den- tro|
 T^c4 A2 z6 | d2 A2 d2 B4 G2 | z6 g2 d2 g2 | _ef ed cB A2 de dc | B4 A2 B2 A4 | G6 =B2 B2 B2 | %23
w: fo- co,|trop- po ri- spon- de|e cor- ri-|spon- * * * * * * * * * *|* de po- *|co, trop- po ris-|
w: di- re,|che bel- la vo- ce|che bel- la|vo- * * * * * ce s'af- * * *|fa- ti- ga'in va-|no, dol- ce ap-|
w: al cor,|ch'un fiu- me'an- cor che|stre- pi- to-||* * so pas-|si, ha po- c'on-|
 ^c4 c2 a2 e2 a2 | fg fe dc =BA Bc dB | ^c2 AB AG F4 E2- | E2 E4 D6 :| %27
w: spon- de, e cor- ri-|spon- * * * * * * * * * * *|* * * * * * de|_ po- co.|
w: pa- rir, se non ha'il|for- * * * * * * * * * * *|* * * * * t'e'l pi-|* a- no.|
w: da nel se- no et|mol- * * * * * * * * * * *|* * * * * * ti|_ fas- si.|
V:2
 D,4 D,DCB, |"^-natural""^-natural" A,2 F,2 G,2 A,2 |"^7 6" B,4 A,4 |"^7 6" A,2 G,2 F,4 | %4
"^7 6""^6" E,4 D,2 C,2 |"^6""^6""^6""^6" D,2 C,2 =B,,2 ^C,2 |"^6" D,2 ^G,2 A,2 D,2 | A,,4 D,4 | %8
"^7 6" D2 C2 B,4 |"^(-natural)""^(-natural)" A,B, ^C2 D2 C2 | B,2 G,2 A,2 A,,2 | D,8 :: %12
[M:6/4] D,4 D2 A,4 B,2 | A,2 G,4 F,2 F,2 G,2 | A,2 F,2 A,2 G,2 A,2 B,2 | C2 C,4 G,,4 A,,2 | %16
 B,,4 C,2 D,2 C,2 B,,2 | A,,6 z6 | ^F,6 G,2 D,2 G,2 | _E,2 D,2 C,2 =B,,6 |"^b""^#" C,6 D,6 | %21
 _E,4 C,4 D,4 | G,,6 G,6 | A,6 A,,6 |"^-natural" D,6 G,4 G,,2 | A,,6 B,,4 G,,2- | G,,2 A,,4 D,6 :| %27

